!!!!SEGMENT: pl-kk--kk-i-14--003_gorczycki-grzegorz-gerwazy--tota-pulchra-es-maria.krn
!!!cenid: 17xx:2191
!!!COM: Gorczycki, Grzegorz Gerwazy
!!!COM-rismid: pe30009207
!!!CDT: ~1666-1734/04/30
!!!CNT: Polish
!!!OTL: Tota pulchra es Maria
!!!PDT:
!!!AGN: Sacred
!!!SMS-siglum: PL-Kk
!!!SMS-shelfmark: Kk.I.14
!!!SMS-shelfwork: 003 W
!!!SMS-variant:
!!!SMS-altvar:
!!!NIFC-rismid: 1001154378
!!!URL-scan: http://repozytorium.nifc.pl/skany/pl-kk-nut--i-14
!!!ONB-nifc: UWAGA: T (skan 0003),< B (0015-0016). Następny utwór: Regina caeli laetare
**kern	**text	**kern	**text
*part2	*part2	*part1	*part1
*staff2	*staff2	*staff1	*staff1
*I"Baſſo	*	*I"[Soprano]	*
*I'B	*	*I'[S]	*
*clefF4	*	*clefC1	*
*k[f#]	*	*k[f#]	*
*e:	*	*e:	*
*M2/1	*	*M2/1	*
*met(C)	*	*met(C)	*
*all\right	*	*all\right	*
=1-	=1-	=1-	=1-
!LO:TX:t=P:problem:przy kluczu FF# F#	!	!	!
2r	.	2r	.
1E	To-	1ee	To-
*2\right	*	*2\right	*
!LO:TX:t=P:problem:kreska pseudotaktowa	!	!LO:TX:t=P:problem:kreska pseudotaktowa	!
2D#X\	-ta	2b\	-ta
=2-	=2-	=2-	=2-
2E\	pul-	2g/	pul-
!LO:TX:t=P:problem:kreska pseudotaktowa	!	!	!
2BB/	.	2f#X/	-chra
2C,</	-chra	2e/	es
1GG/	es	1b\	o_Ma-
=3-	=3-	=3-	=3-
2AA/	o_Ma-	2cc#X\	-ri-
!LO:TX:t=P:problem:kreska pseudotaktowa	!	!	!
0BB	-ri-	2dd#X\	-a
.	.	(1ee\	.
=4-	=4-	=4-	=4-
!	!	!LO:TX:t=P:problem:kreska pseudotaktowa	!
.	.	2dd#X\)	.
2EE,</	-a	2ee\	.
1E\	pul-	1g\	pul-
=5-	=5-	=5-	=5-
!LO:TX:t=P:problem:kreska pseudotaktowa	!	!	!
2F#\	-chra	2a\	-chra
*	*ij	*	*
1G	pul-	4b\	pul-
.	.	4a\	.
.	.	4b\	.
.	.	4ccny\	.
=6-	=6-	=6-	=6-
!LO:TX:t=P:problem:kreska pseudotaktowa	!	!	!
1G	-chra	4ddny\	.
*	*Xij	*	*
.	.	4ee\	.
.	.	4dd\	.
.	.	4cc\	.
!	!	!LO:LB:g=original	!
00r	.	2b\	-chra
.	.	2r	.
=7-	=7-	=7-	=7-
.	.	1r	.
.	.	2rb	.
.	.	2.cc#X\	pul-
=8-	=8-	=8-	=8-
.	.	4cc#y\	-chra
.	.	2dd\	es
!LO:TX:t=P:problem:kreska pseudotaktowa	!	!	!
0r	.	2b\	o_Ma-
.	.	(1b\	-ri-
=9-	=9-	=9-	=9-
!	!	!LO:TX:t=P:problem:kreska pseudotaktowa	!
.	.	2a#X\)	.
2r	.	2b\	-a
1E\	pul-	1b\	pul-
=10-	=10-	=10-	=10-
!LO:TX:t=P:problem:kreska pseudotaktowa	!	!	!
2F#\	-chra	2any\	-chra
*	*ij	*	*
1G	pul-	4dd\	pul-
.	.	4ee\	.
.	.	4dd\	.
.	.	4ccny\	.
=11-	=11-	=11-	=11-
!	!	!LO:TX:t=P:problem:kreska pseudotaktowa	!
2G\	-chra	2b\	-chra
*	*Xij	*	*ij
2.Dny/	pul-	2r	.
.	.	2.b\	pul-
4D/	-chra	.	.
!LO:TX:t=P:problem:kreska pseudotaktowa	!	!	!
2E\	es	.	.
.	.	4b\	-chra
*	*	*	*Xij
!LO:LB:g=original	!	!	!
=12-	=12-	=12-	=12-
2C/	o	2cc\	es
2AA/	Ma-	2cc\	Ma-
!LO:TX:t=P:problem:kreska pseudotaktowa	!	!	!
0BB	-ri-	4b\	-ri-
.	.	4a\	.
.	.	4g\	.
.	.	4a\	.
!	!	!LO:LB:g=original	!
=13-	=13-	=13-	=13-
.	.	1b	.
1E	-a	1b	-a
=14-	=14-	=14-	=14-
00r	.	0r	.
=15-	=15-	=15-	=15-
.	.	1r	.
.	.	2a\	Non
.	.	2dd\	eſt
=16-	=16-	=16-	=16-
*	*	*	*ij
0r	.	2b\	Non
.	.	1ee	eſt
*	*	*	*Xij
.	.	2dd#X\	in
=17-	=17-	=17-	=17-
2r	.	1ee	te
!LO:TX:t=P:problem:kreska pseudotaktowa	!	!	!
2E\	et	.	.
2.D/	Ma-	1rdd	.
!LO:TX:t=P:problem:kreska pseudotaktowa	!	!	!
4C/	-cu-	.	.
=18-	=18-	=18-	=18-
2BB/	-la	2rb	.
1GG	Non	2b\	et
.	.	2.g/	Ma-
1AA/	eſt	.	.
.	.	4f#/	-cu-
=19-	=19-	=19-	=19-
.	.	2e/	-la
1BB	Non	1d	Non
!LO:TX:t=P:problem:kreska pseudotaktowa	!	!	!
2AA/	eſt	1e/	eſt
=20-	=20-	=20-	=20-
1BB	in	.	.
.	.	2d#X/	in
!LO:TX:t=P:problem:kreska pseudotaktowa	!	!LO:TX:t=P:problem:kreska pseudotaktowa	!
1EE	te	1e	te
=21-	=21-	=21-	=21-
0rE	.	2r	.
.	.	2ee\	et
.	.	2.ddny\	Ma-
.	.	4cc\	-cu-
=22-	=22-	=22-	=22-
1rE	.	2b\	-la
!	!	!LO:LB:g=original	!
.	.	1g	Non
2E\	Non	.	.
!LO:TX:t=P:problem:kreska pseudotaktowa	!	!	!
2A\	eſt	1a\	eſt
=23-	=23-	=23-	=23-
*	*ij	*	*
2F#\	Non	.	.
!LO:TX:t=P:problem:kreska pseudotaktowa	!	!	!
2B\	eſt	1b	Non
*	*Xij	*	*
2G\	Non	.	.
!LO:TX:t=P:problem:kreska pseudotaktowa	!	!	!
2E\	eſt	2b\	eſt
!LO:PB:g=original	!	!	!
=24-	=24-	=24-	=24-
1F#	in	(2b\	in
.	.	2a#X\)	.
2BB,</	te	1b	te
!LO:TX:t=P:problem:kreska pseudotaktowa	!	!	!
2B\	et	.	.
=25-	=25-	=25-	=25-
2.G\	Ma-	0r	.
!LO:TX:t=P:problem:kreska pseudotaktowa	!	!	!
4F#\	-cu-	.	.
2E\	-la	.	.
1D\	Non	.	.
=26-	=26-	=26-	=26-
.	.	2r	.
1E	eſt	1g	Non
*	*ij	*	*
1F#\	Non	1any\	eſt
=27-	=27-	=27-	=27-
*	*	*	*ij
1G	eſt	1b	Non
*	*Xij	*	*
1A\	Non	1cc\	eſt
=28-	=28-	=28-	=28-
!LO:TX:t=P:problem:kreska pseudotaktowa	!	!	!
2G\	eſt	1b	Non
1B	in	.	.
.	.	2b\	eſt
*	*	*	*Xij
=29-	=29-	=29-	=29-
1BB	.	1b	in
1El;	te	1bl;;	te
=30||	=30||	=30||	=30||
*M3/2	*	*M3/2	*
2r	.	2r	.
2r	.	2r	.
!LO:TX:t=P:problem:kreska pseudotaktowa	!	!LO:TX:t=P:problem:kreska pseudotaktowa	!
2G\	Tu	2g/	Tu
=31-	=31-	=31-	=31-
2.D/	glo-	2.f#/	Glo-
4D/	-ri-	4g/	-ri-
!LO:TX:t=P:problem:kreska pseudotaktowa	!	!	!
2D/	-a	2a/	-a
!	!	!LO:LB:g=original	!
=32-	=32-	=32-	=32-
*	*ij	*	*
2.E\	glo-	2.g/	glo-
4E\	-ri-	4a\	-ri-
2E\	-a	2b\	-a
*	*Xij	*	*
=33-	=33-	=33-	=33-
2D/	Je-	2b\	Je-
2.C/	-ru-	2b\	-ru-
!	!	!LO:TX:t=P:problem:kreska pseudotaktowa	!
.	.	2a\	-ſa-
!LO:TX:t=P:problem:kreska pseudotaktowa	!	!	!
4C/	-ſa-	.	.
=34-	=34-	=34-	=34-
1BB	-lem	1b	-lem
!LO:TX:t=P:problem:kreska pseudotaktowa	!	!	!
2B\	tu	2b\	tu
=35-	=35-	=35-	=35-
2.F#\	glo-	2.a\	glo-
4F#\	-ri-	4b\	-ri-
!LO:TX:t=P:problem:kreska pseudotaktowa	!	!	!
2F#\	-a	2cc\	-a
=36-	=36-	=36-	=36-
*	*ij	*	*ij
2.G\	glo-	2.b\	glo-
4G\	-ri-	4a\	-ri-
!LO:TX:t=P:problem:kreska pseudotaktowa	!	!	!
2G\	-a	2b\	-a
*	*Xij	*	*Xij
=37-	=37-	=37-	=37-
2F#\	Je-	2a\	Je-
2E\	-ru-	2.g/	-ru-
2E\	-ſa-	.	.
!	!	!LO:TX:t=P:problem:kreska pseudotaktowa	!
.	.	4g/	-ſa-
=38-	=38-	=38-	=38-
!LO:TX:t=P:problem:kreska pseudotaktowa	!	!	!
1D	-lem	1f#	-lem
2r	.	2dd\	tu
=39-	=39-	=39-	=39-
!LO:TX:t=P:problem:kreska pseudotaktowa	!	!	!
1.r	.	4g/	glo-
.	.	4f#/	.
.	.	4g/	.
.	.	4a/	.
.	.	4b\	.
.	.	4g/	.
!	!	!LO:LB:g=original	!
=40-	=40-	=40-	=40-
2r	.	4a\	.
.	.	4g\	.
2r	.	4a\	.
.	.	4b\	.
!LO:TX:t=P:problem:kreska pseudotaktowa	!	!	!
2D/	tu	4cc\	.
.	.	4a\	.
=41-	=41-	=41-	=41-
2.G\	glo-	2.b\	.
4G\	-ri-	4cc\	-ri-
4D,</	-a	2dd\	-a
4D/	Je-	.	.
=42-	=42-	=42-	=42-
1AA	-ru-	2dd\	Je-
.	.	2dd\	-ru-
!LO:TX:t=P:problem:kreska pseudotaktowa	!	!	!
2AA/	-ſa-	2cc#X\	-ſa-
!LO:LB:g=original	!	!	!
=43-	=43-	=43-	=43-
1D,<	-lem	1dd	-lem
!LO:TX:t=P:problem:kreska pseudotaktowa	!	!LO:TX:t=P:problem:kreska pseudotaktowa	!
2A\	tu	2a\	tu
=44-	=44-	=44-	=44-
4D/	glo-	2.a\	glo-
4C/	.	.	.
4D/	.	.	.
4E/	.	4g/	-ri-
4F#\	.	2f#/	-a
!LO:TX:t=P:problem:kreska pseudotaktowa	!	!	!
4D\	.	.	.
=45-	=45-	=45-	=45-
*	*	*	*ij
4E\	.	2.b\	glo-
4D\	.	.	.
4E\	.	.	.
4F#\	.	4a\	-ri-
4G\	.	4g/	-a
*	*	*	*Xij
!LO:TX:t=P:problem:kreska pseudotaktowa	!	!LO:TX:t=P:problem:kreska pseudotaktowa	!
4E\	.	4g/	Je-
=46-	=46-	=46-	=46-
4F#\	.	2.dd\	-ru-
4E\	.	.	.
4F#\	.	.	.
4G\	.	4dd\	-ſa-
4A\	.	4dd\	-lem
!LO:TX:t=P:problem:kreska pseudotaktowa	!	!	!
4F#\	.	4dd\	tu
!	!	!LO:LB:g=original	!
=47-	=47-	=47-	=47-
2.G\	.	4g\	glo-
.	.	4f#\	.
.	.	4g\	.
4G\	-ri-	4a\	.
!LO:TX:t=P:problem:kreska pseudotaktowa	!	!	!
2G\	-a	4b\	.
!	!	!LO:TX:t=P:problem:kreska pseudotaktowa	!
.	.	4g\	.
=48-	=48-	=48-	=48-
2D/	tu	4a\	.
.	.	4g\	.
2.F#\	glo-	4a\	.
.	.	4b\	.
.	.	4cc#X\	.
!LO:TX:t=P:problem:kreska pseudotaktowa	!	!	!
4F#\	-ri-	4a\	.
=49-	=49-	=49-	=49-
2G,<\	-a	2.b\	.
(2G\	Je-	.	.
.	.	4cc#y\	-ri-
2F#\)	.	2dd\	-a
=50-	=50-	=50-	=50-
1E	-ru-	2dd\	Je-
.	.	2dd\	-ru-
!LO:TX:t=P:problem:kreska pseudotaktowa	!	!	!
2E\	-ſa-	2cc#X\	-ſa-
=51-	=51-	=51-	=51-
1D,<	-lem	1.dd	-lem
!LO:TX:t=P:problem:kreska pseudotaktowa	!	!	!
2D/	tu	.	.
=52-	=52-	=52-	=52-
4GG/	glo-	2.dd\	glo-
4FF#/	.	.	.
4GG/	.	.	.
4AA/	.	4ccny\	-ri-
4BB/	.	2b\	-a
!LO:TX:t=P:problem:kreska pseudotaktowa	!	!	!
4GG/	.	.	.
=53-	=53-	=53-	=53-
*	*	*	*ij
!	!	!LO:N:vis=2.	!
4AA/	.	2ee\	glo-
4GG/	.	.	.
!	!	!LO:TX:t=P:problem:pionowa kreska na 5 linii	!
(4AA/	.	4dd\	.
4BB/	.	4cc\	-ri-
4C/)	.	4cc\	-a
*	*	*	*Xij
!LO:TX:t=P:problem:kreska pseudotaktowa	!	!	!
4AA/	.	4cc\	Je-
!	!	!LO:LB:g=original	!
=54-	=54-	=54-	=54-
2.BB/	.	2.b\	-ru-
4BB/	-ri-	4b\	-ſa-
!LO:TX:t=P:problem:kreska pseudotaktowa	!	!	!
2BB/	-a	4b\	-lem
!	!	!LO:TX:t=P:problem:kreska pseudotaktowa	!
.	.	4dd\	tu
=55-	=55-	=55-	=55-
*	*ij	*	*
2.GG/	glo-	4b\	glo-
.	.	4a\	.
.	.	4b\	.
4GG/	-ri-	4cc\	.
!LO:TX:t=P:problem:kreska pseudotaktowa	!	!	!
2GG/	-a	4dd\	.
.	.	4b\	.
=56-	=56-	=56-	=56-
2.AA/	glo-	2.cc\	.
4AA/	-ri-	4b\	-ri-
!LO:TX:t=P:problem:kreska pseudotaktowa	!	!	!
2AA/	-a	2a\	-a
*	*Xij	*	*
=57-	=57-	=57-	=57-
2EE/	Je-	2b\	Je-
2BB/	-ru-	2b\	-ru-
!LO:TX:t=P:problem:kreska pseudotaktowa	!	!	!
2BB/	-ſa-	2b\	-ſa-
!LO:LB:g=original	!	!	!
=58-	=58-	=58-	=58-
!LO:TX:t=P:problem:kreska pseudotaktowa	!	!	!
1.E 1.EE	-lem	1.b	-lem
=59-	=59-	=59-	=59-
2r	.	0.r	.
2E\	tu	.	.
!LO:TX:t=P:problem:kreska pseudotaktowa	!	!	!
2E\	lae-	.	.
=60-	=60-	=60-	=60-
2.A\	-ti-	.	.
4B\	.	.	.
4G\	.	.	.
!LO:TX:t=P:problem:kreska pseudotaktowa	!	!	!
4A\	.	.	.
=61-	=61-	=61-	=61-
2.F#\	-ti-	2r	.
.	.	2a\	tu
4F#\	-a	.	.
4F#\	.	2a\	lae-
!LO:TX:t=P:problem:kreska pseudotaktowa	!	!	!
4F#\	lae-	.	.
=62-	=62-	=62-	=62-
2.B\	-ti-	2.dd\	-ti-
4c\	.	4ee\	.
4A\	.	4cc#X\	.
!LO:TX:t=P:problem:kreska pseudotaktowa	!	!	!
4B\	.	4dd\	.
=63-	=63-	=63-	=63-
2.G\	.	2.b\	.
4G\	-ti-	4cc#X\	-ti-
!LO:TX:t=P:problem:kreska pseudotaktowa	!	!	!
2F#\	-a	2dd\	-a
!	!	!LO:LB:g=original	!
=64-	=64-	=64-	=64-
1A	Is-	1dd	Iſ-
2A\	-ra-	2cc#X\	-ra-
=65-	=65-	=65-	=65-
!LO:TX:t=P:problem:kreska pseudotaktowa	!	!	!
1.D	-el	1.dd	-el
=66-	=66-	=66-	=66-
!LO:TX:t=P:problem:kreska pseudotaktowa	!	!	!
1.r	.	0.rb	.
=67-	=67-	=67-	=67-
2r	.	.	.
2D/	tu	.	.
!LO:TX:t=P:problem:kreska pseudotaktowa	!	!	!
2D/	lae-	.	.
!LO:LB:g=original	!	!	!
=68-	=68-	=68-	=68-
2.G\	-ti-	2rb	.
.	.	2b\	tu
4A\	.	.	.
4F#\	.	2b\	lae-
!LO:TX:t=P:problem:kreska pseudotaktowa	!	!	!
4G\	.	.	.
=69-	=69-	=69-	=69-
2.E\	.	2.ee\	.
4E\	-ti-	4ff#X\	.
!LO:TX:t=P:problem:kreska pseudotaktowa	!	!	!
2E\	-a	4dd\	.
.	.	4ee\	.
=70-	=70-	=70-	=70-
2.AA/	Iſ-	2.cc#X\	-ti-
4AA/	-ra-	4cc#\	-ti-
!LO:TX:t=P:problem:kreska pseudotaktowa	!	!	!
2AA/	-el	4cc#\	-a
.	.	4cc#\	lae-
=71-	=71-	=71-	=71-
0.rC	.	2.dd#X\	-ti-
.	.	4dd#\	-ti-
.	.	2ee\	-a
=72-	=72-	=72-	=72-
.	.	1ee	Iſ-
.	.	2dd#X\	-ra-
=73-	=73-	=73-	=73-
2E\	Tu	1ee	-el
4E\	ho-	.	.
4E\	-no-	.	.
4F#\	-ri-	2rb	.
!LO:TX:t=P:problem:kreska pseudotaktowa	!	!	!
4F#\	-fi-	.	.
=74-	=74-	=74-	=74-
2.G\	-cen-	00.rb	.
4F#\	-ti-	.	.
!LO:TX:t=P:problem:kreska pseudotaktowa	!	!	!
2E\	-a	.	.
=75-	=75-	=75-	=75-
2.D/	po-	.	.
4D/	-pu-	.	.
!LO:TX:t=P:problem:kreska pseudotaktowa	!	!	!
2G\	-li	.	.
=76-	=76-	=76-	=76-
(2.F#\	no-	.	.
4G\	.	.	.
4F#\	.	.	.
!LO:TX:t=P:problem:kreska pseudotaktowa	!	!	!
4G\)	.	.	.
!LO:LB:g=original	!	!	!
=77-	=77-	=77-	=77-
1A	.	.	.
1G\	.	.	.
=78-	=78-	=78-	=78-
.	.	0.r	.
!LO:TX:t=P:problem:kreska pseudotaktowa	!	!	!
1F#	.	.	.
=79-	=79-	=79-	=79-
1E	-ſtri	.	.
!LO:TX:t=P:problem:kreska pseudotaktowa	!	!	!
2r	.	.	.
!	!	!LO:PB:g=original	!
=80-	=80-	=80-	=80-
00.r	.	2b\	Tu
.	.	4b\	ho-
.	.	4b\	-no-
.	.	4cc#X\	-ri-
.	.	4cc#\	-fi-
=81-	=81-	=81-	=81-
.	.	2.ddny\	-cen-
.	.	4cc#y\	-ti-
.	.	2b\	-a
=82-	=82-	=82-	=82-
.	.	2.a\	po-
.	.	4a\	-pu-
.	.	2dd\	-li
=83-	=83-	=83-	=83-
.	.	2cc#X\	No-
.	.	2dd\	.
.	.	2.ee\	.
=84-	=84-	=84-	=84-
!LO:TX:t=P:problem:kreska pseudotaktowa	!	!	!
1.rE	.	.	.
.	.	4b\	.
.	.	2ee\	.
.	.	2dd#X\	.
=85-	=85-	=85-	=85-
2E\	tu	1.ee	-ſtri
4E\	ho-	.	.
4E\	-no-	.	.
4F#\	-ri-	.	.
!LO:TX:t=P:problem:kreska pseudotaktowa	!	!	!
4F#\	-fi-	.	.
=86-	=86-	=86-	=86-
2.G\	-cen-	2b\	Tu
.	.	4b\	ho-
4F#\	-ti-	4b\	-no-
!LO:TX:t=P:problem:kreska pseudotaktowa	!	!	!
2E\	-a	4cc#X\	-ri-
.	.	4cc#\	-fi-
!	!	!LO:LB:g=original	!
=87-	=87-	=87-	=87-
2.D/	po-	2.ddny\	-cen-
4D/	-pu-	4cc#\	-ti-
!LO:TX:t=P:problem:kreska pseudotaktowa	!	!	!
2G\	-li	2b\	-a
=88-	=88-	=88-	=88-
1F#	No-	2.cc#X\	po-
.	.	4b\	-pu-
!LO:TX:t=P:problem:kreska pseudotaktowa	!	!	!
2F#\	-ſtri	2a#X\	-li
=89-	=89-	=89-	=89-
2BB/	Tu	1b	No-
4BB/	ho-	.	.
4BB/	-no-	.	.
4C/	-ri-	2b\	-ſtri
!LO:TX:t=P:problem:kreska pseudotaktowa	!	!	!
4C/	-fi-	.	.
=90-	=90-	=90-	=90-
2.D/	-cen-	2f#/	tu
.	.	4f#/	ho-
4C/	-ti-	4f#/	-no-
2BB/	-a	4g#X/	-ri-
.	.	4g#/	-fi-
!LO:LB:g=original	!	!	!
=91-	=91-	=91-	=91-
2.AA/	po-	2.any\	-cen-
4AA/	-pu-	4gny/	-ti-
!LO:TX:t=P:problem:kreska pseudotaktowa	!	!	!
2D/	-li	2f#/	-a
=92-	=92-	=92-	=92-
*	*ij	*	*
2.BB/	po-	2.b\	po-
4BB/	-pu-	4a\	-pu-
2E\	-li	2g/	-li
*	*Xij	*	*
=93-	=93-	=93-	=93-
1.BB	No-	1.f#	No-
=94-	=94-	=94-	=94-
1.EEl;	-ſtri	1.g#lX;	-ſtri
!	!	!LO:LB:g=original	!
=95||	=95||	=95||	=95||
*M2/1	*	*M2/1	*
*met(C)	*	*met(C)	*
0r	.	0r	.
=96-	=96-	=96-	=96-
!LO:TX:t=P:problem:kreska pseudotaktowa	!	!	!
1r	.	2rb	.
.	.	1ee	Al-
2r	.	.	.
1B\	Al-	1dd\	-l[e]-
=97-	=97-	=97-	=97-
1A	.	1cc	.
1G\	.	1b\	.
=98-	=98-	=98-	=98-
1F#	.	1a	-lu-
!	!	!LO:TX:t=P:problem:kreska pseudotaktowa	!
1E\	.	2g/	-ia
=99-	=99-	=99-	=99-
.	.	2r	.
1D	.	2a\	al-
.	.	2b\	-le-
!LO:TX:t=P:problem:kreska pseudotaktowa	!	!	!
2E\	.	2cc\	-lu-
=100-	=100-	=100-	=100-
2F#\	.	2a\	.
2G\	-le-	2dd\	.
1D	-lu-	1dd	.
=101-	=101-	=101-	=101-
!	!	!LO:TX:t=P:problem:kreska pseudotaktowa	!
1GG	-ia	1b	-ia
!LO:LB:g=original	!	!	!
00r	.	2dd\	al-
.	.	2ee\	-le-
=102-	=102-	=102-	=102-
.	.	2ff#X\	-lu-
.	.	2gg\	-ia
!	!	!LO:LB:g=original	!
*	*	*	*ij
.	.	2b\	al-
.	.	2cc\	-le-
=103-	=103-	=103-	=103-
.	.	2dd\	-lu-
.	.	2ee\	-ia
*	*	*	*Xij
!LO:TX:t=P:problem:kreska pseudotaktowa	!	!	!
00r	.	2.ccn\	al-
.	.	4dd\	.
=104-	=104-	=104-	=104-
.	.	2b\	-le-
.	.	1ee	-lu-
.	.	2dd#X\	-ia
=105-	=105-	=105-	=105-
.	.	1ee	.
*	*ij	*	*
2E\	Al-	1rdd	.
!LO:TX:t=P:problem:kreska pseudotaktowa	!	!	!
2F#\	-le-	.	.
=106-	=106-	=106-	=106-
2G#X\	-lu-	2rb	.
!LO:TX:t=P:problem:kreska pseudotaktowa	!	!	!
2A\	-ia	1ee	al-
*	*Xij	*	*
2C/	al-	.	.
!LO:TX:t=P:problem:kreska pseudotaktowa	!	!	!
2D\	-le-	1ddny\	-le-
=107-	=107-	=107-	=107-
2E\	-lu-	.	-lu-
!LO:TX:t=P:problem:kreska pseudotaktowa	!	!	!
2F#\	-ia	1cc#X	.
*	*ij	*	*
2D/	al-	.	.
!LO:TX:t=P:problem:kreska pseudotaktowa	!	!	!
2BB/	-le-	1b\	-lu-
=108-	=108-	=108-	=108-
!LO:TX:t=P:problem:kreska pseudotaktowa	!	!	!
1F#	-lu-	.	.
.	.	2a#X\	-ia
2BB,</	-ia	1b	.
*	*Xij	*	*
1B\	al-	.	.
=109-	=109-	=109-	=109-
.	.	1r	.
1A	.	.	.
.	.	2r	.
1Gny\	.	1b\	al-
=110-	=110-	=110-	=110-
1F#	.	1any	-le-
1E\	-le-	2g/	.
!	!	!LO:LB:g=original	!
=111-	=111-	=111-	=111-
.	.	(2a\	-lu-
!LO:TX:t=P:problem:kreska pseudotaktowa	!	!	!
2D#X/	-lu-	2b\)	.
!LO:TX:t=P:problem:kreska pseudotaktowa	!	!	!
1E,<	-ia	1b	-ia
!LO:PB:g=original	!	!	!
=112-	=112-	=112-	=112-
2BB/	al-	0r	.
!LO:TX:t=P:problem:kreska pseudotaktowa	!	!	!
2C#X/	-le-	.	.
2D#X/	-lu-	.	.
!LO:TX:t=P:problem:kreska pseudotaktowa	!	!	!
2E\	-ia	.	.
=113-	=113-	=113-	=113-
2GG/	al-	2b\	al-
2AA/	-le-	2ccny\	-le-
2BB/	-lu-	2dd\	-lu-
!LO:TX:t=P:problem:kreska pseudotaktowa	!	!	!
2Cn/	-ia	2ee\	-ia
=114-	=114-	=114-	=114-
*	*ij	*	*ij
2AA/	al-	2cc\	al-
2AA/	-le-	2cc\	-le-
!LO:TX:t=P:problem:kreska pseudotaktowa	!	!	!
1BB	-lu-	1b	-lu-
=115-	=115-	=115-	=115-
2EE/	-ia	1b	-ia
*	*Xij	*	*Xij
1E	al-	.	.
.	.	1rdd	.
1Dny\	-le-	.	.
=116-	=116-	=116-	=116-
.	.	2rb	.
1C	.	1ee	al-
1BB/	.	1dd\	-le-
=117-	=117-	=117-	=117-
.	.	.	-lu-
1AA	.	1cc	.
2GG/	.	1b\	.
=118-	=118-	=118-	=118-
[>1BB	.	.	.
.	.	1ee	.
1BB]	-lu-	.	.
!	!	!LO:TX:a:t=P:problem:# above	!
.	.	2dd#X\	.
=119-	=119-	=119-	=119-
!	!	!LO:TX:t=P:problem:kreska pseudotaktowa	!
0E	-ia	0ee	-ia
!LO:LB:g=original	!	!	!
=120||	=120||	=120||	=120||
2AA/	al-	2cc\	al-
2GG#X/	-le-	2b\	-le-
1AA	-lu-	1cc	-lu-
=121-	=121-	=121-	=121-
0El;;	-ia	0bl;;	-ia
==	==	==	==
*-	*-	*-	*-
!!!system-decoration: [(s1,<s2)]
!!!RDF**kern: > = above
!!!RDF**kern: < = below
!!!RDF**kern: l = terminal long
!!!ENC: Andrzej Kubiczek
!!!END: 2021-07-16
!!!ENC: Andrzej Gręziak
!!!END: 2021-06-30
